Dominus_Dark_Funeral/22/mimes/application-x-m4.svg

<svg xmlns="http://www.w3.org/2000/svg" viewBox="0 0 24 24"><defs><linearGradient id="a"><stop offset="0"/><stop offset="1" stop-opacity="0"/></linearGradient></defs><path d="M9.323.888c-.093.043-.229.136-.288.196-.102.118-1.858 4.547-1.952 4.904a.819.819 0 0 0 .23.763c.118.119.729.39 1.95.866.985.373 1.783.695 1.8.704.008.008-.976 2.562-3.259 8.416-.152.382-.229.51-.322.526-.085.009-.119.06-.119.204a43.61 43.61 0 0 0-1.985 5.142c.017.17.06.203.543.39.62.246.764.254.882.068.17-.28 1.816-4.633 1.816-4.82 0-.11.034-.195.102-.22.068-.025.085-.085.068-.204-.034-.17.229-.907 1.196-3.368.195-.467.764-1.934 1.273-3.25.509-1.315.933-2.4.95-2.418.017-.016.305.085.662.23a58.755 58.755 0 0 0 3.003 1.145c.23.05.577-.068.747-.272.136-.17 2.002-4.878 2.002-5.065 0-.22-.204-.594-.39-.704-.102-.06-.959-.204-1.9-.772l-1.698-.662.034-.254.043-.263-.399-.162c-.577-.237-.679-.237-.78.017l-.094.187-1.833-.704a25.759 25.759 0 0 0-1.95-.704c-.086 0-.222.042-.332.084z" fill="#e6e6e6"/></svg>

<?xml version="1.0" encoding="UTF-8" standalone="no"?>
<svg
   xmlns:dc="http://purl.org/dc/elements/1.1/"
   xmlns:cc="http://creativecommons.org/ns#"
   xmlns:rdf="http://www.w3.org/1999/02/22-rdf-syntax-ns#"
   xmlns:svg="http://www.w3.org/2000/svg"
   xmlns="http://www.w3.org/2000/svg"
   xmlns:sodipodi="http://sodipodi.sourceforge.net/DTD/sodipodi-0.dtd"
   xmlns:inkscape="http://www.inkscape.org/namespaces/inkscape"
   viewBox="0 0 24 24"
   version="1.1"
   id="svg11"
   sodipodi:docname="application-x-m4.svg"
   inkscape:version="0.92.4 (5da689c313, 2019-01-14)">
  <metadata
     id="metadata15">
    <rdf:RDF>
      <cc:Work
         rdf:about="">
        <dc:format>image/svg+xml</dc:format>
        <dc:type
           rdf:resource="http://purl.org/dc/dcmitype/StillImage" />
        <dc:title></dc:title>
      </cc:Work>
    </rdf:RDF>
  </metadata>
  <sodipodi:namedview
     pagecolor="#ffffff"
     bordercolor="#666666"
     borderopacity="1"
     objecttolerance="10"
     gridtolerance="10"
     guidetolerance="10"
     inkscape:pageopacity="0"
     inkscape:pageshadow="2"
     inkscape:window-width="1112"
     inkscape:window-height="480"
     id="namedview13"
     showgrid="false"
     inkscape:zoom="9.8333333"
     inkscape:cx="1.0677966"
     inkscape:cy="12"
     inkscape:window-x="0"
     inkscape:window-y="25"
     inkscape:window-maximized="0"
     inkscape:current-layer="svg11" />
  <defs
     id="defs7">
    <linearGradient
       id="a">
      <stop
         offset="0"
         id="stop2" />
      <stop
         offset="1"
         stop-opacity="0"
         id="stop4" />
    </linearGradient>
  </defs>
  <path
     d="M 9.323,0.888 C 9.23,0.931 9.094,1.024 9.035,1.084 8.933,1.202 7.177,5.631 7.083,5.988 a 0.819,0.819 0 0 0 0.23,0.763 c 0.118,0.119 0.729,0.39 1.95,0.866 0.985,0.373 1.783,0.695 1.8,0.704 0.008,0.008 -0.976,2.562 -3.259,8.416 -0.152,0.382 -0.229,0.51 -0.322,0.526 -0.085,0.009 -0.119,0.06 -0.119,0.204 a 43.61,43.61 0 0 0 -1.985,5.142 c 0.017,0.17 0.06,0.203 0.543,0.39 0.62,0.246 0.764,0.254 0.882,0.068 0.17,-0.28 1.816,-4.633 1.816,-4.82 0,-0.11 0.034,-0.195 0.102,-0.22 0.068,-0.025 0.085,-0.085 0.068,-0.204 -0.034,-0.17 0.229,-0.907 1.196,-3.368 0.195,-0.467 0.764,-1.934 1.273,-3.25 0.509,-1.315 0.933,-2.4 0.95,-2.418 0.017,-0.016 0.305,0.085 0.662,0.23 a 58.755,58.755 0 0 0 3.003,1.145 c 0.23,0.05 0.577,-0.068 0.747,-0.272 0.136,-0.17 2.002,-4.878 2.002,-5.065 0,-0.22 -0.204,-0.594 -0.39,-0.704 -0.102,-0.06 -0.959,-0.204 -1.9,-0.772 L 14.634,2.687 14.668,2.433 14.711,2.17 14.312,2.008 C 13.735,1.771 13.633,1.771 13.532,2.025 L 13.438,2.212 11.605,1.508 A 25.759,25.759 0 0 0 9.655,0.804 c -0.086,0 -0.222,0.042 -0.332,0.084 z"
     id="path9"
     inkscape:connector-curvature="0"
     style="fill:#e6e6e6" />
</svg>
